src/img/HomePage/Crystals/Down1.svg

<?xml version="1.0" encoding="UTF-8"?> <svg xmlns="http://www.w3.org/2000/svg" width="153" height="109" viewBox="0 0 153 109" fill="none"> <path d="M3.25919 95.3183C10.1273 83.0666 22.0238 49.9735 21.241 45.2977C20.9482 43.5544 21.2333 43.4494 45.9616 36.1801C56.745 33.0098 70.5583 28.7588 76.6582 26.7337C104.646 17.4431 121.874 11.393 134.258 6.50796C141.637 3.59752 148.685 1.02044 149.92 0.781625C153.724 0.0471249 149.906 2.85237 145.548 3.99453C143.533 4.5218 134.951 7.66132 126.476 10.9699C112.958 16.2479 86.4575 25.665 79.1661 27.7807C77.7716 28.1862 69.8652 30.6005 61.5965 33.146C53.3287 35.6924 41.4242 39.2751 35.1426 41.1092L23.72 44.4433L20.5621 55.8805C16.8469 69.338 11.4141 83.4443 5.65754 94.5807C3.38484 98.9772 1.62716 103.292 1.75247 104.168C1.92121 105.35 1.74761 105.503 1.07678 104.759C-0.222071 103.316 0.481337 100.277 3.25919 95.3183Z" fill="#FA007A"></path> <path d="M16.8384 83.9999C22.7281 70.2809 28.4236 50.9855 27.4009 48.2111C26.6393 46.145 27.2305 45.6669 28.6057 47.2367C29.7846 48.5825 25.8435 65.5916 22.3286 74.3299C20.3609 79.2197 19.3868 87.3502 20.5858 88.866C20.8409 89.1898 22.8281 88.9651 25.001 88.3678L28.9513 87.2808L27.0402 89.7315C25.9898 91.0781 21.2588 95.3466 16.5271 99.2149C9.78842 104.725 8.50155 106.134 10.5828 105.717C14.9086 104.852 21.3787 100.533 32.3563 91.1821C38.0392 86.3405 44.9939 80.9242 47.8096 79.1448C50.6252 77.3655 55.9962 73.6913 59.7443 70.979C71.7392 62.3007 86.593 52.9221 93.5434 49.6398C97.7237 47.6641 103.181 43.871 107.878 39.6739L115.462 32.8976L108.899 39.9314C104.104 45.0709 101.084 47.4921 97.6879 48.9236C87.1034 53.3849 54.4854 75.6799 31.6304 94.0741C23.7317 100.432 16.2931 105.832 15.0994 106.072C13.9056 106.315 11.5428 107.066 9.8489 107.741C8.13407 108.426 5.72057 108.247 4.40507 107.34C2.21048 105.824 2.23253 105.747 4.71452 106.275C7.29434 106.823 7.45059 106.678 9.27229 102.035C10.3092 99.3912 13.7143 91.2758 16.8384 83.9999Z" fill="#FA007A"></path> <path d="M54.7292 40.3488C42.3241 44.4497 31.6618 47.6475 31.0343 47.4542C29.1385 46.8717 30.4878 46.3182 41.4021 43.1956C52.6248 39.9857 65.6809 35.682 91.3406 26.7377C100.206 23.6474 107.44 21.4133 107.416 21.773C107.38 22.3201 88.2919 29.464 79.7815 32.1148C78.4074 32.5437 67.1334 36.2487 54.7292 40.3488Z" fill="#FA007A"></path> <path d="M113.999 19.4246C113.281 20.103 111.741 20.7965 110.579 20.9672C108.002 21.3454 109.423 20.1004 112.829 18.9961C114.463 18.4666 114.861 18.6125 113.999 19.4246Z" fill="#FA007A"></path> <path d="M120.297 29.4006C119.815 30.3142 119.029 30.6133 118.549 30.0651C117.489 28.8553 117.729 28.6414 128.676 21.0657C134.733 16.8746 138.244 13.7735 140.124 10.9579C141.75 8.51987 143.684 6.7153 144.962 6.4437C148.346 5.72551 137.724 16.2593 128.875 22.3966C124.639 25.3344 120.778 28.4861 120.297 29.4006Z" fill="#FA007A"></path> <path fill-rule="evenodd" clip-rule="evenodd" d="M133.57 47.3614C133.975 48.9748 134.062 51.7576 133.763 53.5457C133.295 56.3343 133.519 56.7536 135.34 56.4959C137.881 56.1375 152.729 41.7223 152.919 39.4292C153.001 38.4408 152.666 38.1905 152.018 38.7574C151.451 39.2549 147.326 40.3624 142.851 41.2196C133.273 43.0543 132.6 43.4991 133.57 47.3614ZM136.764 45.7572C136.363 46.108 135.676 45.9846 135.236 45.4823C134.796 44.9801 137.94 43.6668 142.224 42.5646C146.508 41.4624 150.14 40.7055 150.296 40.8837C150.451 41.0611 148.746 42.8774 146.508 44.9196C144.269 46.9619 141.885 49.5457 141.209 50.6627C140.203 52.3252 139.649 52.2452 138.149 50.2167C136.124 47.4786 136.508 46.7714 140.64 45.6304C143.343 44.8841 143.337 44.8624 140.465 44.9887C138.829 45.0611 137.164 45.4063 136.764 45.7572Z" fill="#FA007A"></path> </svg>

<svg xmlns="http://www.w3.org/2000/svg" width="153" height="109" fill="none"><path d="M3.26 95.318c6.867-12.251 18.764-45.344 17.981-50.02-.293-1.744-.008-1.849 24.72-9.118 10.784-3.17 24.597-7.421 30.697-9.446 27.988-9.29 45.216-15.341 57.6-20.226 7.379-2.91 14.427-5.488 15.662-5.726 3.804-.735-.014 2.07-4.372 3.213-2.015.527-10.597 3.666-19.072 6.975-13.518 5.278-40.019 14.695-47.31 16.81-1.394.406-9.3 2.82-17.57 5.366-8.267 2.546-20.172 6.13-26.453 7.963L23.72 44.443l-3.158 11.438c-3.715 13.457-9.148 27.563-14.904 38.7-2.273 4.396-4.03 8.711-3.906 9.587.17 1.182-.004 1.335-.675.591-1.3-1.443-.596-4.482 2.182-9.44Z" fill="#FA007A"/><path d="M16.838 84c5.89-13.72 11.586-33.014 10.563-35.789-.762-2.066-.17-2.544 1.205-.974 1.179 1.346-2.763 18.355-6.277 27.093-1.968 4.89-2.942 13.02-1.743 14.536.255.324 2.242.1 4.415-.498l3.95-1.087-1.91 2.45c-1.051 1.347-5.782 5.616-10.514 9.484-6.739 5.51-8.025 6.919-5.944 6.502 4.326-.865 10.796-5.184 21.773-14.535 5.683-4.841 12.638-10.258 15.454-12.037 2.815-1.78 8.186-5.454 11.934-8.166 11.995-8.678 26.849-18.057 33.8-21.34 4.18-1.975 9.637-5.768 14.334-9.965l7.584-6.776-6.563 7.033c-4.795 5.14-7.815 7.561-11.211 8.993-10.585 4.46-43.203 26.756-66.058 45.15-7.898 6.358-15.337 11.758-16.53 11.998-1.194.243-3.557.994-5.251 1.669-1.715.685-4.128.506-5.444-.401-2.195-1.516-2.172-1.593.31-1.065 2.58.548 2.736.403 4.557-4.24 1.037-2.644 4.442-10.76 7.566-18.035Z" fill="#FA007A"/><path d="M54.73 40.349c-12.406 4.1-23.068 7.299-23.696 7.105-1.895-.582-.546-1.136 10.368-4.258 11.223-3.21 24.279-7.514 49.939-16.458 8.865-3.09 16.099-5.325 16.075-4.965-.036.547-19.124 7.691-27.635 10.342-1.374.429-12.648 4.134-25.052 8.234ZM113.999 19.425c-.718.678-2.258 1.372-3.42 1.542-2.577.378-1.156-.867 2.25-1.97 1.634-.53 2.032-.384 1.17.428ZM120.297 29.4c-.482.914-1.268 1.213-1.748.665-1.06-1.21-.82-1.424 10.127-9 6.057-4.19 9.568-7.292 11.448-10.107 1.626-2.438 3.56-4.243 4.838-4.514 3.384-.718-7.238 9.815-16.087 15.953-4.236 2.937-8.097 6.09-8.578 7.004Z" fill="#FA007A"/><path fill-rule="evenodd" clip-rule="evenodd" d="M133.57 47.361c.405 1.614.492 4.397.193 6.185-.468 2.788-.244 3.208 1.577 2.95 2.541-.358 17.389-14.774 17.579-17.067.082-.988-.253-1.239-.901-.672-.567.498-4.692 1.605-9.167 2.463-9.578 1.834-10.251 2.28-9.281 6.141Zm3.194-1.604c-.401.351-1.088.228-1.528-.275-.44-.502 2.704-1.815 6.988-2.917 4.284-1.103 7.916-1.86 8.072-1.681.155.177-1.55 1.993-3.788 4.036-2.239 2.042-4.623 4.626-5.299 5.743-1.006 1.662-1.56 1.582-3.06-.446-2.025-2.738-1.641-3.446 2.491-4.587 2.703-.746 2.697-.768-.175-.641-1.636.072-3.301.417-3.701.768Z" fill="#FA007A"/></svg>
